!!!COM: Anon.
!!!OTL: Antoninho de pequeno
!!!OTL: Romanceiro Folclorico do Brasil
!!!CNT: Brasil
!!!OCY: Brasil
!!!ODT: <1971///
!!!PSR: Irmaos Vitale
!!!PSP: Sao Paulo, Brasil
!!!PDT: 1948///
!!!PPE: Rossini Tavares de Lima
!!!PPG: page 33
!! Romance: Antoniho
!! Place: Ibitinga, Sao Paulo, Brasilz
**kern
*clefG2
*k[b-e-a-]
*M3/4
*MM100
8g
8e-
=
4c
4c
8g
8e-
=
4c
4c
8g
8g
=
4a-
4g
8b-
8a-
=
2g
4g
=
4b-
8a-
8g
8b-
8a-
=
4g
4e-
8g
8g
=
4b-
4a-
8f
8d
=
2e-
==
*-
